src/categories-icons-sprite/categories/svg-cat-semimanufactured-goods.svg

<svg width="31" height="23" viewBox="0 0 31 23" fill="none" xmlns="http://www.w3.org/2000/svg">
<path class="p-FF637B" d="M29.8703 14.5556C28.8584 12.6015 26.5206 11.7117 24.4095 12.4968C24.078 12.619 23.636 12.7411 23.3219 12.8283L22.4496 14.2415L21.5772 13.3866C20.984 13.5436 20.4084 13.6832 19.8326 13.8053L18.9602 15.2883L18.0879 14.1019C17.4946 14.1717 16.919 14.224 16.3432 14.2415L15.4708 15.585L14.5985 14.2415C14.0227 14.2241 13.4471 14.1718 12.8538 14.1019L11.9815 15.2883L11.1091 13.8053C10.5333 13.6832 9.95769 13.5436 9.36444 13.3866L8.4921 14.2415L7.61975 12.8283C7.30571 12.7411 6.88117 12.619 6.54968 12.4968C4.43855 11.7117 2.10073 12.6015 1.08881 14.5556C0.513003 15.6722 0.443273 16.9982 0.896892 18.1671C1.35051 19.3012 2.24024 20.191 3.35684 20.6097C7.59643 22.1973 11.7197 22.9999 15.4708 22.9999C19.2219 22.9999 23.3626 22.1973 27.6022 20.6097C28.7188 20.191 29.6085 19.3012 30.0621 18.1671C30.5159 16.9981 30.4461 15.6722 29.8703 14.5556Z" fill="#5FBEFF"/>
<path class="p-E63950" d="M29.8701 14.5556C30.4459 15.6722 30.5157 16.9982 30.062 18.1671C29.6084 19.3012 28.7187 20.191 27.6021 20.6097C23.3625 22.1973 19.2218 22.9999 15.4707 22.9999V15.585L16.343 14.2415C16.9189 14.2241 17.4945 14.1718 18.0877 14.1019L18.9601 15.2883L19.8324 13.8053C20.4082 13.6832 20.9839 13.5436 21.5771 13.3866L22.4494 14.2415L23.3218 12.8283C23.6358 12.7411 24.0778 12.619 24.4093 12.4968C26.5203 11.7117 28.8581 12.6015 29.8701 14.5556Z" fill="#65B3E7"/>
<path class="p-FF637B" d="M29.8702 2.34316C28.8583 0.38911 26.5205 -0.500681 24.4094 0.284429C24.0779 0.406557 23.6359 0.528685 23.3219 0.615919L22.4495 2.41301L21.5772 1.17422C20.9839 1.33118 20.4083 1.47076 19.8325 1.59294L18.9601 3.07587L18.0878 1.88948C17.4945 1.95933 16.9189 2.01161 16.3431 2.02912L15.4708 3.47726L14.5984 2.02912C14.0226 2.01167 13.447 1.95939 12.8537 1.88948L11.9814 3.07587L11.109 1.59294C10.5332 1.47082 9.95761 1.33118 9.36435 1.17422L8.49201 2.41301L7.61967 0.615919C7.30562 0.528685 6.86945 0.406557 6.53796 0.284429C4.42683 -0.500681 2.08901 0.38911 1.07709 2.34316C0.501284 3.45976 0.431555 4.78578 0.885173 5.95466C1.33879 7.08877 2.22852 7.97856 3.34512 8.39728C7.58471 9.98489 11.7196 10.7875 15.4707 10.7875C19.2218 10.7875 23.3626 9.98489 27.6021 8.39728C28.7187 7.97856 29.6084 7.08877 30.062 5.95466C30.5158 4.78572 30.446 3.45976 29.8702 2.34316Z" fill="#5FBEFF"/>
<path class="p-E63950" d="M27.6021 8.39728C23.3625 9.98489 19.2218 10.7875 15.4707 10.7875V3.47726L16.343 2.02912C16.9188 2.01167 17.4945 1.95939 18.0877 1.88948L18.9601 3.07587L19.8324 1.59294C20.4082 1.47082 20.9838 1.33118 21.5771 1.17422L22.4494 2.41301L23.3218 0.615919C23.6358 0.528685 24.0778 0.406557 24.4093 0.284429C26.5204 -0.500681 28.8583 0.38911 29.8702 2.34316C30.446 3.45976 30.5157 4.78578 30.0621 5.95466C29.6084 7.08877 28.7187 7.97856 27.6021 8.39728Z" fill="#65B3E7"/>
<path class="p-E63950" d="M16.3433 2.0293V5.55363C16.3433 6.03541 15.9528 6.42597 15.471 6.42597C14.9892 6.42597 14.5986 6.03541 14.5986 5.55363V2.0293C14.8952 2.06425 15.1744 2.06425 15.471 2.06425C15.7675 2.06425 16.0467 2.06425 16.3433 2.0293Z" fill="#A1D1FD"/>
<path class="p-AE2538" d="M16.343 2.0293V5.55362C16.343 6.0354 15.9525 6.42597 15.4707 6.42597V2.06425C15.7672 2.06425 16.0465 2.06425 16.343 2.0293Z" fill="#4D98CB"/>
<path class="p-E63950" d="M16.3433 14.2419V17.7663C16.3433 18.2481 15.9528 18.6386 15.471 18.6386C14.9892 18.6386 14.5986 18.2481 14.5986 17.7663V14.2419C14.8952 14.2769 15.1744 14.2769 15.471 14.2769C15.7675 14.2769 16.0467 14.2769 16.3433 14.2419Z" fill="#A1D1FD"/>
<path class="p-AE2538" d="M19.8326 1.59253V5.32616C19.8326 5.80794 19.442 6.19851 18.9602 6.19851C18.4785 6.19851 18.0879 5.80794 18.0879 5.32616V1.88907C18.6462 1.81934 19.2393 1.71466 19.8326 1.59253Z" fill="#4D98CB"/>
<path class="p-E63950" d="M12.8531 1.88907V5.32616C12.8531 5.80795 12.4625 6.19851 11.9807 6.19851C11.499 6.19851 11.1084 5.80795 11.1084 5.32616V1.59253C11.7016 1.71466 12.2948 1.81934 12.8531 1.88907Z" fill="#A1D1FD"/>
<path class="p-E63950" d="M9.36481 1.17427V4.68109C9.36481 5.16287 8.97424 5.55344 8.49246 5.55344C8.01068 5.55344 7.62012 5.16287 7.62012 4.68109V0.615967C8.21337 0.825329 8.789 1.01719 9.36481 1.17427Z" fill="#A1D1FD"/>
<path class="p-AE2538" d="M19.8326 13.8054V17.539C19.8326 18.0208 19.442 18.4114 18.9602 18.4114C18.4785 18.4114 18.0879 18.0208 18.0879 17.539V14.102C18.6462 14.0322 19.2393 13.9275 19.8326 13.8054Z" fill="#4D98CB"/>
<path class="p-E63950" d="M12.8531 14.102V17.539C12.8531 18.0208 12.4625 18.4114 11.9807 18.4114C11.499 18.4114 11.1084 18.0208 11.1084 17.539V13.8054C11.7016 13.9275 12.2948 14.0322 12.8531 14.102Z" fill="#A1D1FD"/>
<path class="p-E63950" d="M9.36481 13.3872V16.894C9.36481 17.3758 8.97424 17.7663 8.49246 17.7663C8.01068 17.7663 7.62012 17.3758 7.62012 16.894V12.8289C8.21337 13.0382 8.789 13.2301 9.36481 13.3872Z" fill="#A1D1FD"/>
<path class="p-AE2538" d="M23.3218 12.8289V16.894C23.3218 17.3758 22.9313 17.7664 22.4495 17.7664C21.9677 17.7664 21.5771 17.3758 21.5771 16.894V13.3872C22.1529 13.2301 22.7286 13.0382 23.3218 12.8289Z" fill="#4D98CB"/>
<path class="p-AE2538" d="M23.3218 0.615967V4.68114C23.3218 5.16292 22.9313 5.55349 22.4495 5.55349C21.9677 5.55349 21.5771 5.16292 21.5771 4.68114V1.17432C22.1529 1.01719 22.7286 0.825329 23.3218 0.615967Z" fill="#4D98CB"/>
<path class="p-AE2538" d="M15.4707 14.2769C15.7672 14.2769 16.0465 14.2769 16.343 14.2419V17.7663C16.343 18.2481 15.9525 18.6386 15.4707 18.6386V14.2769Z" fill="#4D98CB"/>
</svg>

<svg width="31" height="23" fill="none" xmlns="http://www.w3.org/2000/svg"><path class="p-FF637B" d="M29.87 14.556c-1.012-1.954-3.35-2.844-5.46-2.06-.332.123-.774.245-1.088.332l-.872 1.414-.873-.855c-.593.157-1.169.296-1.744.418l-.873 1.483-.872-1.186c-.593.07-1.169.122-1.745.14l-.872 1.343-.873-1.344a20.055 20.055 0 01-1.744-.14l-.872 1.187-.873-1.483a35.933 35.933 0 01-1.745-.418l-.872.854-.872-1.413c-.314-.087-.739-.209-1.07-.331-2.111-.785-4.45.104-5.461 2.059a4.423 4.423 0 00-.192 3.611c.454 1.134 1.343 2.024 2.46 2.443C7.597 22.197 11.72 23 15.47 23c3.75 0 7.892-.803 12.131-2.39 1.117-.419 2.006-1.309 2.46-2.443a4.422 4.422 0 00-.192-3.611z" fill="#5FBEFF"/><path class="p-E63950" d="M29.87 14.556a4.423 4.423 0 01.192 3.611c-.454 1.134-1.343 2.024-2.46 2.443-4.24 1.587-8.38 2.39-12.131 2.39v-7.415l.872-1.344c.576-.017 1.151-.07 1.745-.14l.872 1.187.872-1.483a35.92 35.92 0 001.745-.418l.872.854.873-1.413c.314-.087.756-.209 1.087-.331 2.111-.785 4.45.104 5.461 2.059z" fill="#65B3E7"/><path class="p-FF637B" d="M29.87 2.343C28.858.39 26.52-.5 24.41.284c-.332.123-.774.245-1.088.332l-.872 1.797-.873-1.239a36.09 36.09 0 01-1.745.419l-.872 1.483-.872-1.187c-.594.07-1.17.123-1.745.14l-.872 1.448-.873-1.448a20.071 20.071 0 01-1.744-.14l-.873 1.187-.872-1.483a36.006 36.006 0 01-1.745-.419l-.872 1.239L7.62.616C7.306.529 6.87.406 6.538.284 4.427-.5 2.089.39 1.078 2.344a4.423 4.423 0 00-.193 3.61C1.34 7.09 2.23 7.98 3.345 8.398c4.24 1.588 8.375 2.39 12.126 2.39 3.75 0 7.892-.802 12.131-2.39 1.117-.418 2.006-1.308 2.46-2.442a4.422 4.422 0 00-.192-3.612z" fill="#5FBEFF"/><path class="p-E63950" d="M27.602 8.397c-4.24 1.588-8.38 2.39-12.131 2.39v-7.31l.872-1.448c.576-.017 1.151-.07 1.745-.14l.872 1.187.872-1.483a36.019 36.019 0 001.745-.419l.872 1.239.873-1.797c.314-.087.756-.21 1.087-.332C26.52-.5 28.86.39 29.87 2.344a4.423 4.423 0 01.192 3.61c-.454 1.135-1.343 2.025-2.46 2.443z" fill="#65B3E7"/><path class="p-E63950" d="M16.343 2.03v3.524a.872.872 0 11-1.744 0V2.029c.296.035.575.035.872.035.296 0 .576 0 .872-.035z" fill="#A1D1FD"/><path class="p-AE2538" d="M16.343 2.03v3.524c0 .481-.39.872-.872.872V2.064c.296 0 .576 0 .872-.035z" fill="#4D98CB"/><path class="p-E63950" d="M16.343 14.242v3.524a.872.872 0 11-1.744 0v-3.524c.296.035.575.035.872.035.296 0 .576 0 .872-.035z" fill="#A1D1FD"/><path class="p-AE2538" d="M19.833 1.593v3.733a.872.872 0 01-1.745 0V1.89c.558-.07 1.151-.174 1.745-.296z" fill="#4D98CB"/><path class="p-E63950" d="M12.853 1.89v3.436a.872.872 0 01-1.745 0V1.593a22.79 22.79 0 001.745.296zM9.365 1.174v3.507a.872.872 0 01-1.745 0V.616c.593.21 1.169.401 1.745.558z" fill="#A1D1FD"/><path class="p-AE2538" d="M19.833 13.805v3.734a.872.872 0 01-1.745 0v-3.437c.558-.07 1.151-.175 1.745-.297z" fill="#4D98CB"/><path class="p-E63950" d="M12.853 14.102v3.437a.872.872 0 01-1.745 0v-3.734a22.84 22.84 0 001.745.297zM9.365 13.387v3.507a.872.872 0 01-1.745 0v-4.065c.593.21 1.169.401 1.745.558z" fill="#A1D1FD"/><path class="p-AE2538" d="M23.322 12.829v4.065a.872.872 0 11-1.745 0v-3.507a25.189 25.189 0 001.745-.558zM23.322.616v4.065a.872.872 0 11-1.745 0V1.174a25.173 25.173 0 001.745-.558zM15.47 14.277c.297 0 .577 0 .873-.035v3.524c0 .482-.39.873-.872.873v-4.362z" fill="#4D98CB"/></svg>
